blog/demystifying-the-load-balancing-in-istio/client-side-load-balancing.svg

<svg xmlns="http://www.w3.org/2000/svg" xmlns:xl="http://www.w3.org/1999/xlink" width="617" height="432" version="1.1" viewBox="229 164 617 432"><defs><marker id="FilledArrow_Marker" stroke-linejoin="miter" stroke-miterlimit="10" color="#000" markerHeight="6" markerUnits="strokeWidth" markerWidth="7" orient="auto" overflow="visible" viewBox="-1 -3 7 6"><g><path fill="currentColor" stroke="currentColor" stroke-width="1" d="M 4.8 0 L 0 -1.8 L 0 1.8 Z"/></g></marker></defs><g id="client-side-load-balancing" fill="none" fill-opacity="1" stroke="none" stroke-dasharray="none" stroke-opacity="1"><title>client-side-load-balancing</title><rect width="617" height="432" x="229" y="164" fill="#fff"/><g id="client-side-load-balancing_Layer_1"><title>Layer 1</title><g id="Graphic_19"><path stroke="gray" stroke-dasharray="4 4" stroke-linecap="round" stroke-linejoin="round" stroke-width="1" d="M 653.292 330 L 801.708 330 C 806.1263 330 809.708 333.58172 809.708 338 L 809.708 569 C 809.708 573.4183 806.1263 577 801.708 577 L 653.292 577 C 648.8737 577 645.292 573.4183 645.292 569 L 645.292 338 C 645.292 333.58172 648.8737 330 653.292 330 Z"/><text fill="#000" transform="translate(650.292 552.5359)"><tspan x="48.904" y="16" fill="#000" font-family="Helvetica Neue" font-size="16" font-weight="bold">Service</tspan></text></g><g id="Graphic_13"><path fill="#0a55a8" d="M 257.5 416 L 364.5 416 C 368.91828 416 372.5 419.5817 372.5 424 L 372.5 462 C 372.5 466.4183 368.91828 470 364.5 470 L 257.5 470 C 253.08172 470 249.5 466.4183 249.5 462 L 249.5 424 C 249.5 419.5817 253.08172 416 257.5 416 Z"/><text fill="#fff" transform="translate(254.5 433.26794)"><tspan x="34.292" y="16" fill="#fff" font-family="Helvetica Neue" font-size="16" font-weight="bold">Client</tspan></text></g><g id="Graphic_12"><path fill="#0a55a8" d="M 674 490 L 781 490 C 785.4183 490 789 493.5817 789 498 L 789 536 C 789 540.4183 785.4183 544 781 544 L 674 544 C 669.5817 544 666 540.4183 666 536 L 666 498 C 666 493.5817 669.5817 490 674 490 Z"/><text fill="#fff" transform="translate(671 507.26794)"><tspan x="15.612" y="16" fill="#fff" font-family="Helvetica Neue" font-size="16" font-weight="bold">Instance C</tspan></text></g><g id="Graphic_8"><path fill="#0a55a8" d="M 674 416 L 781 416 C 785.4183 416 789 419.5817 789 424 L 789 462 C 789 466.4183 785.4183 470 781 470 L 674 470 C 669.5817 470 666 466.4183 666 462 L 666 424 C 666 419.5817 669.5817 416 674 416 Z"/><text fill="#fff" transform="translate(671 433.26794)"><tspan x="15.908" y="16" fill="#fff" font-family="Helvetica Neue" font-size="16" font-weight="bold">Instance B</tspan></text></g><g id="Graphic_7"><path fill="#0a55a8" d="M 674 342 L 781 342 C 785.4183 342 789 345.58172 789 350 L 789 388 C 789 392.4183 785.4183 396 781 396 L 674 396 C 669.5817 396 666 392.4183 666 388 L 666 350 C 666 345.58172 669.5817 342 674 342 Z"/><text fill="#fff" transform="translate(671 359.26794)"><tspan x="16.06" y="16" fill="#fff" font-family="Helvetica Neue" font-size="16" font-weight="bold">Instance A</tspan></text></g><g id="Graphic_16"><path fill="#0a55a8" d="M 416 234.5 L 416 182.5 C 416 178.912 445.12 176 481 176 C 516.88 176 546 178.912 546 182.5 L 546 234.5 C 546 238.088 516.88 241 481 241 C 445.12 241 416 238.088 416 234.5"/><path stroke="#fff" stroke-linecap="round" stroke-linejoin="round" stroke-width="1" d="M 416 234.5 L 416 182.5 C 416 178.912 445.12 176 481 176 C 516.88 176 546 178.912 546 182.5 L 546 234.5 C 546 238.088 516.88 241 481 241 C 445.12 241 416 238.088 416 234.5 M 416 182.5 C 416 186.088 445.12 189 481 189 C 516.88 189 546 186.088 546 182.5"/><text fill="#fff" transform="translate(421 192.2859)"><tspan x="31.696" y="16" fill="#fff" font-family="Helvetica Neue" font-size="16" font-weight="bold">Service </tspan> <tspan x="28.304" y="35.464" fill="#fff" font-family="Helvetica Neue" font-size="16" font-weight="bold">Registry</tspan></text></g><g id="Line_17"><path stroke="#000" stroke-linecap="round" stroke-linejoin="round" stroke-width="2" marker-end="url(#FilledArrow_Marker)" d="M 291.5703 416 C 288.3248 401.51677 291.37684 380.6185 312.1795 351.92308 C 338.8089 315.19017 387.60163 275.23105 425.90783 246.84315"/></g><g id="Graphic_18"><rect width="164.416" height="29.464" x="267.36" y="295.475" fill="#fff"/><text fill="#000" transform="translate(272.36034 300.47537)"><tspan x="0" y="16" fill="#000" font-family="Helvetica Neue" font-size="16" font-weight="bold">2. Service Discovery</tspan></text></g><g id="Line_20"><path stroke="#000" stroke-linecap="round" stroke-linejoin="round" stroke-width="2" marker-end="url(#FilledArrow_Marker)" d="M 744.0326 330 C 739.322 309.77486 729.63546 289.78564 712.1795 272.4359 C 674.4708 234.9567 610.08075 219.31116 558.81824 212.84794"/></g><g id="Graphic_21"><rect width="153.12" height="29.464" x="607.444" y="236.1" fill="#fff"/><text fill="#000" transform="translate(612.4437 241.10043)"><tspan x="0" y="16" fill="#000" font-family="Helvetica Neue" font-size="16" font-weight="bold">1. Service Register</tspan></text></g><g id="Line_22"><path stroke="#000" stroke-linecap="round" stroke-linejoin="round" stroke-width="2" marker-end="url(#FilledArrow_Marker)" d="M 371.6499 420.40745 C 407.73684 408.45685 457.65873 394.18705 515.13964 383.97436 C 567.9865 374.585 616.0929 370.6024 653.1048 369.06687"/></g><g id="Line_23"><line x1="372.5" x2="653.1" y1="443" y2="443" stroke="#000" stroke-linecap="round" stroke-linejoin="round" stroke-width="2" marker-end="url(#FilledArrow_Marker)"/></g><g id="Line_24"><path stroke="#000" stroke-linecap="round" stroke-linejoin="round" stroke-width="2" marker-end="url(#FilledArrow_Marker)" d="M 371.1665 466.42393 C 395.9194 473.94185 429.16433 482.3119 472.4359 490 C 535.08426 501.1308 603.1086 508.0532 653.1403 512.0983"/></g><g id="Graphic_25"><rect width="146.288" height="29.464" x="452" y="404" fill="#fff"/><text fill="#000" transform="translate(457 409)"><tspan x="0" y="16" fill="#000" font-family="Helvetica Neue" font-size="16" font-weight="bold">3. Load Balancing</tspan></text></g></g></g></svg>

<svg xmlns="http://www.w3.org/2000/svg" width="617" height="432" viewBox="229 164 617 432"><defs><marker id="a" stroke-linejoin="miter" stroke-miterlimit="10" color="#000" markerHeight="6" markerUnits="strokeWidth" markerWidth="7" orient="auto" overflow="visible" viewBox="-1 -3 7 6"><path fill="currentColor" stroke="currentColor" d="M4.8 0 0-1.8v3.6Z"/></marker></defs><g fill="none"><path fill="#fff" d="M229 164h617v432H229z"/><path stroke="gray" stroke-dasharray="4 4" stroke-linecap="round" stroke-linejoin="round" d="M653.292 330h148.416a8 8 0 0 1 8 8v231a8 8 0 0 1-8 8H653.292a8 8 0 0 1-8-8V338a8 8 0 0 1 8-8"/><text fill="#000" transform="translate(650.292 552.536)"><tspan x="48.904" y="16" font-family="Helvetica Neue" font-size="16" font-weight="bold">Service</tspan></text><path fill="#0a55a8" d="M257.5 416h107a8 8 0 0 1 8 8v38a8 8 0 0 1-8 8h-107a8 8 0 0 1-8-8v-38a8 8 0 0 1 8-8"/><text fill="#fff" transform="translate(254.5 433.268)"><tspan x="34.292" y="16" font-family="Helvetica Neue" font-size="16" font-weight="bold">Client</tspan></text><path fill="#0a55a8" d="M674 490h107a8 8 0 0 1 8 8v38a8 8 0 0 1-8 8H674a8 8 0 0 1-8-8v-38a8 8 0 0 1 8-8"/><text fill="#fff" transform="translate(671 507.268)"><tspan x="15.612" y="16" font-family="Helvetica Neue" font-size="16" font-weight="bold">Instance C</tspan></text><path fill="#0a55a8" d="M674 416h107a8 8 0 0 1 8 8v38a8 8 0 0 1-8 8H674a8 8 0 0 1-8-8v-38a8 8 0 0 1 8-8"/><text fill="#fff" transform="translate(671 433.268)"><tspan x="15.908" y="16" font-family="Helvetica Neue" font-size="16" font-weight="bold">Instance B</tspan></text><path fill="#0a55a8" d="M674 342h107a8 8 0 0 1 8 8v38a8 8 0 0 1-8 8H674a8 8 0 0 1-8-8v-38a8 8 0 0 1 8-8"/><text fill="#fff" transform="translate(671 359.268)"><tspan x="16.06" y="16" font-family="Helvetica Neue" font-size="16" font-weight="bold">Instance A</tspan></text><path fill="#0a55a8" d="M416 234.5v-52c0-3.588 29.12-6.5 65-6.5s65 2.912 65 6.5v52c0 3.588-29.12 6.5-65 6.5s-65-2.912-65-6.5"/><path stroke="#fff" stroke-linecap="round" stroke-linejoin="round" d="M416 234.5v-52c0-3.588 29.12-6.5 65-6.5s65 2.912 65 6.5v52c0 3.588-29.12 6.5-65 6.5s-65-2.912-65-6.5m0-52c0 3.588 29.12 6.5 65 6.5s65-2.912 65-6.5"/><text fill="#fff" transform="translate(421 192.286)"><tspan x="31.696" y="16" font-family="Helvetica Neue" font-size="16" font-weight="bold">Service </tspan> <tspan x="28.304" y="35.464" font-family="Helvetica Neue" font-size="16" font-weight="bold">Registry</tspan></text><path stroke="#000" stroke-linecap="round" stroke-linejoin="round" stroke-width="2" marker-end="url(#a)" d="M291.57 416c-3.245-14.483-.193-35.382 20.61-64.077 26.629-36.733 75.422-76.692 113.728-105.08"/><path fill="#fff" d="M267.36 295.475h164.416v29.464H267.36z"/><text fill="#000" transform="translate(272.36 300.475)"><tspan x="0" y="16" font-family="Helvetica Neue" font-size="16" font-weight="bold">2. Service Discovery</tspan></text><path stroke="#000" stroke-linecap="round" stroke-linejoin="round" stroke-width="2" marker-end="url(#a)" d="M744.033 330c-4.711-20.225-14.398-40.214-31.854-57.564-37.708-37.48-102.098-53.125-153.36-59.588"/><path fill="#fff" d="M607.444 236.1h153.12v29.464h-153.12z"/><text fill="#000" transform="translate(612.444 241.1)"><tspan x="0" y="16" font-family="Helvetica Neue" font-size="16" font-weight="bold">1. Service Register</tspan></text><path stroke="#000" stroke-linecap="round" stroke-linejoin="round" stroke-width="2" marker-end="url(#a)" d="M371.65 420.407c36.087-11.95 86.009-26.22 143.49-36.433 52.846-9.389 100.953-13.372 137.965-14.907"/><path stroke="#000" stroke-linecap="round" stroke-linejoin="round" stroke-width="2" marker-end="url(#a)" d="M372.5 443h280.6"/><path stroke="#000" stroke-linecap="round" stroke-linejoin="round" stroke-width="2" marker-end="url(#a)" d="M371.167 466.424c24.752 7.518 57.997 15.888 101.269 23.576 62.648 11.13 130.673 18.053 180.704 22.098"/><path fill="#fff" d="M452 404h146.288v29.464H452z"/><text fill="#000" transform="translate(457 409)"><tspan x="0" y="16" font-family="Helvetica Neue" font-size="16" font-weight="bold">3. Load Balancing</tspan></text></g></svg>
